img/icons/icon-user.svg

<svg width="14" height="14" viewBox="0 0 14 14" xmlns="http://www.w3.org/2000/svg">
  <path opacity="0.1"
    d="M4.375 3.92978C4.375 5.45321 5.55275 6.69294 7 6.69294C8.44725 6.69294 9.625 5.45321 9.625 3.92978C9.625 2.40636 8.44725 1.16663 7 1.16663C5.55275 1.16663 4.375 2.40636 4.375 3.92978ZM11.6667 12.8333H12.25V12.2193C12.25 9.8497 10.4177 7.92101 8.16667 7.92101H5.83333C3.58167 7.92101 1.75 9.8497 1.75 12.2193V12.8333H11.6667Z"
    fill="#192144" />
</svg>

<svg width="14" height="14" xmlns="http://www.w3.org/2000/svg"><path opacity=".1" d="M4.375 3.93c0 1.523 1.178 2.763 2.625 2.763s2.625-1.24 2.625-2.763c0-1.524-1.178-2.763-2.625-2.763S4.375 2.407 4.375 3.93zm7.292 8.903h.583v-.614c0-2.37-1.832-4.298-4.083-4.298H5.833c-2.251 0-4.083 1.929-4.083 4.298v.614h9.917z" fill="#192144"/></svg>
